cheelee/dist/images/twitter.svg

<svg width="34" height="28" viewBox="0 0 34 28" fill="none" xmlns="http://www.w3.org/2000/svg">
<path d="M32.7987 3.75354C30.7121 4.48962 30.4542 4.39615 31.4506 3.27451C32.2111 2.52536 32.7921 1.61477 33.1503 0.610619C33.1503 0.528832 32.7869 0.610618 32.3649 0.879344C31.6717 1.22139 30.9501 1.50286 30.2081 1.72057L28.8835 2.14119L27.7112 1.32333C27.061 0.880596 26.3607 0.515879 25.6247 0.23674C24.2072 -0.107976 22.7237 -0.0757453 21.3226 0.330209C19.8531 0.833346 18.5897 1.80283 17.7259 3.09011C16.862 4.37739 16.4455 5.91147 16.54 7.45729L16.6103 8.62566L15.4381 8.48545C10.9937 7.93662 6.86427 5.91162 3.71594 2.73706L2.08656 1.1247L1.67627 2.29308C1.22547 3.53514 1.12924 4.87751 1.39828 6.17084C1.66731 7.46417 2.29107 8.65774 3.20016 9.61877C4.18482 10.6586 3.9621 10.7871 2.26238 10.1913C1.67627 9.99266 1.1605 9.84077 1.09016 9.92255C1.16123 11.0718 1.46003 12.1956 1.96933 13.229C2.75459 14.5937 3.92434 15.6986 5.33359 16.407L6.50581 16.9678H5.07571C3.70421 16.9678 3.65733 16.9678 3.79799 17.517C4.2307 18.4808 4.86423 19.3419 5.65649 20.0429C6.44875 20.7439 7.38161 21.2689 8.39308 21.5829L9.91697 22.097L8.59236 22.8915C6.58128 24.0339 4.31843 24.664 2.0045 24.7258C1.33015 24.6925 0.654563 24.7594 0 24.9245C1.45544 25.86 3.03323 26.5912 4.68887 27.0976C7.36044 27.9114 10.1694 28.1787 12.9472 27.8836C15.725 27.5884 18.4143 26.7369 20.8538 25.3801C24.489 23.0665 27.3467 19.7217 29.0593 15.7761C29.9907 13.4016 30.5558 10.9002 30.7356 8.35693C30.7356 7.18856 30.8059 7.06004 32.1774 5.70473C32.8046 5.11946 33.381 4.48238 33.9005 3.80028C34.1115 3.33293 34.0881 3.33293 32.7987 3.75354Z" fill="#01FFC2"/>
</svg>

<svg xmlns="http://www.w3.org/2000/svg" width="34" height="28" fill="none" viewBox="0 0 34 28"><path fill="#01FFC2" d="M32.799 3.754c-2.087.736-2.345.642-1.348-.48a7.1 7.1 0 0 0 1.7-2.663c0-.082-.364 0-.786.268a13.4 13.4 0 0 1-2.157.842l-1.324.42-1.173-.818A10 10 0 0 0 25.625.237a8.36 8.36 0 0 0-4.302.093 7.1 7.1 0 0 0-3.597 2.76 7.06 7.06 0 0 0-1.186 4.367l.07 1.169-1.172-.14a19.95 19.95 0 0 1-11.722-5.75l-1.63-1.612-.41 1.168A7.12 7.12 0 0 0 3.2 9.62c.985 1.04.762 1.168-.938.572-.586-.198-1.101-.35-1.172-.268a8.7 8.7 0 0 0 .88 3.306 8.05 8.05 0 0 0 3.364 3.178l1.172.56h-1.43c-1.372 0-1.419 0-1.278.55a7.4 7.4 0 0 0 1.858 2.526 7.5 7.5 0 0 0 2.737 1.54l1.524.514-1.325.794a14.1 14.1 0 0 1-6.587 1.835A6.8 6.8 0 0 0 0 24.924a19 19 0 0 0 4.689 2.174 20.8 20.8 0 0 0 16.165-1.718 21.56 21.56 0 0 0 8.205-9.604 25.2 25.2 0 0 0 1.677-7.42c0-1.167.07-1.296 1.441-2.651A15 15 0 0 0 33.901 3.8c.21-.467.187-.467-1.102-.046"/></svg>
